JackSchool/img/steps/01.svg

<svg width="36" height="27" viewBox="0 0 36 27" fill="none" xmlns="http://www.w3.org/2000/svg">
<path d="M11.11 26.56C8.94 26.56 7.015 26.0583 5.335 25.055C3.67833 24.0283 2.37167 22.5583 1.415 20.645C0.481667 18.7083 0.015 16.41 0.015 13.75C0.015 11.09 0.481667 8.80333 1.415 6.89C2.37167 4.95333 3.67833 3.48333 5.335 2.48C7.015 1.45333 8.94 0.939999 11.11 0.939999C13.28 0.939999 15.1933 1.45333 16.85 2.48C18.53 3.48333 19.8367 4.95333 20.77 6.89C21.7267 8.80333 22.205 11.09 22.205 13.75C22.205 16.41 21.7267 18.7083 20.77 20.645C19.8367 22.5583 18.53 24.0283 16.85 25.055C15.1933 26.0583 13.28 26.56 11.11 26.56ZM11.11 19.945C12.9767 19.945 13.91 17.88 13.91 13.75C13.91 9.62 12.9767 7.555 11.11 7.555C9.24333 7.555 8.31 9.62 8.31 13.75C8.31 17.88 9.24333 19.945 11.11 19.945ZM35.5266 1.5V26H27.2666V7.73H23.0666V1.5H35.5266Z" fill="#FFC601"/>
</svg>

<svg width="36" height="27" fill="none" xmlns="http://www.w3.org/2000/svg"><path d="M11.11 26.56c-2.17 0-4.095-.502-5.775-1.505-1.657-1.027-2.963-2.497-3.92-4.41-.933-1.937-1.4-4.235-1.4-6.895 0-2.66.467-4.947 1.4-6.86.957-1.937 2.263-3.407 3.92-4.41C7.015 1.453 8.94.94 11.11.94c2.17 0 4.083.513 5.74 1.54 1.68 1.003 2.987 2.473 3.92 4.41.957 1.913 1.435 4.2 1.435 6.86s-.478 4.958-1.435 6.895c-.933 1.913-2.24 3.383-3.92 4.41-1.657 1.003-3.57 1.505-5.74 1.505zm0-6.615c1.867 0 2.8-2.065 2.8-6.195 0-4.13-.933-6.195-2.8-6.195-1.867 0-2.8 2.065-2.8 6.195 0 4.13.933 6.195 2.8 6.195zM35.527 1.5V26h-8.26V7.73h-4.2V1.5h12.46z" fill="#FFC601"/></svg>
